dist/svg/static/editorial-small.svg

<svg xmlns="http://www.w3.org/2000/svg" width="24" height="24" viewBox="0 0 24 24"><g fill="none" stroke="currentColor" stroke-miterlimit="10"><path d="M5 15.5h14m-14-3h14m-6-3h6m-6-3h6m-13.5 0h5v3h-5z"/><path d="M21.5 23.5H3.494a.999.999 0 0 1-.994-.998V.5h18.006a.999.999 0 0 1 .994.998V23.5z"/></g></svg>

<?xml version="1.0" encoding="UTF-8" standalone="no"?>
<svg width="24px" height="24px" viewBox="0 0 24 24" version="1.1" xmlns="http://www.w3.org/2000/svg" xmlns:xlink="http://www.w3.org/1999/xlink">
    <!-- Generator: sketchtool 46.2 (44496) - http://www.bohemiancoding.com/sketch -->
    <title>editorial-small</title>
    <desc>Created with sketchtool.</desc>
    <defs></defs>
    <g id="icons-published" stroke="none" stroke-width="1" fill="none" fill-rule="evenodd">
        <g id="briefing" transform="translate(-68.000000, -538.000000)"></g>
        <g id="editorial-small" stroke="#000000">
            <path d="M5,15.5 L19,15.5 L5,15.5 Z M5,12.5 L19,12.5 L5,12.5 Z M13,9.5 L19,9.5 L13,9.5 Z M13,6.5 L19,6.5 L13,6.5 Z M5.5,6.5 L10.5,6.5 L10.5,9.5 L5.5,9.5 L5.5,6.5 Z" id="Shape"></path>
            <path d="M21.5,23.5 L3.5,23.5 C3,23.5 2.5,23.1 2.5,22.5 L2.5,0.5 L20.5,0.5 C21,0.5 21.5,0.9 21.5,1.5 L21.5,23.5 Z" id="Shape"></path>
        </g>
    </g>
</svg>
